svg/wiper_wash.svg

<svg xmlns="http://www.w3.org/2000/svg" viewBox="0 0 24 24"><path d="M13 6c0-.3.1-1.4.8-2.2L12 2.4l-1.8 1.5c.7.7.8 1.8.8 2.1-6.3.4-9 5-9 5l7 7s.7-1.3 2-1.8v2.1c-.6.3-1 1-1 1.7a2 2 0 0 0 2 2 2 2 0 0 0 2-2c0-.7-.4-1.4-1-1.7v-2.1c1.3.5 2 1.8 2 1.8l7-7s-2.7-4.5-9-5m-2 8.1c-.8.2-1.5.5-2.1 1l-4.2-4.2C5.8 9.8 7.8 8.3 11 8.1zm4.1 1c-.6-.4-1.3-.8-2.1-1v-6c3.2.3 5.2 1.7 6.3 2.8zM18 1.3l-.7 1.9c-.7-.3-1.8-.3-2.6 0L14 1.3c1.2-.4 2.8-.4 4 0M21 6h-2s0-1.3-.8-2.1l1.5-1.3C21 4 21 5.9 21 6M4.2 2.6l1.5 1.3C5 4.7 5 6 5 6H3c0-.1 0-2 1.2-3.4M10 1.3l-.7 1.9c-.7-.3-1.8-.3-2.6 0L6 1.3c1.2-.4 2.8-.4 4 0"/></svg>

<?xml version="1.0" encoding="UTF-8"?><!DOCTYPE svg PUBLIC "-//W3C//DTD SVG 1.1//EN" "http://www.w3.org/Graphics/SVG/1.1/DTD/svg11.dtd"><svg xmlns="http://www.w3.org/2000/svg" xmlns:xlink="http://www.w3.org/1999/xlink" version="1.1" id="mdi-wiper-wash" width="24" height="24" viewBox="0 0 24 24"><path d="M13,6C13,5.7 13.1,4.6 13.8,3.8L12,2.4L10.2,3.9C10.9,4.6 11,5.7 11,6C4.7,6.4 2,11 2,11L9,18C9,18 9.7,16.7 11,16.2V18.3C10.4,18.6 10,19.3 10,20A2,2 0 0,0 12,22A2,2 0 0,0 14,20C14,19.3 13.6,18.6 13,18.3V16.2C14.3,16.7 15,18 15,18L22,11C22,11 19.3,6.5 13,6M11,14.1C10.2,14.3 9.5,14.6 8.9,15.1L4.7,10.9C5.8,9.8 7.8,8.3 11,8.1V14.1M15.1,15.1C14.5,14.7 13.8,14.3 13,14.1V8.1C16.2,8.4 18.2,9.8 19.3,10.9L15.1,15.1M18,1.3L17.3,3.2C16.6,2.9 15.5,2.9 14.7,3.2L14,1.3C15.2,0.9 16.8,0.9 18,1.3M21,6H19C19,6 19,4.7 18.2,3.9L19.7,2.6C21,4 21,5.9 21,6M4.2,2.6L5.7,3.9C5,4.7 5,6 5,6H3C3,5.9 3,4 4.2,2.6M10,1.3L9.3,3.2C8.6,2.9 7.5,2.9 6.7,3.2L6,1.3C7.2,0.9 8.8,0.9 10,1.3Z" /></svg>
